X:1
T: The Mill of Newe
C:Alexander Walker
R:Strathspey
Q: 128
K:Em
M:4/4
L:1/16
|:"version   Winston Fitzgerald"B,E3 G3E B3E GB3|A,D3 F3D A3D GFED|B,E3 G3E B3E Ge3|dB3 A3F EEE2 E4|
B,E3 G3E B3E GB3|A,D3 F3D A3D GFED|B,E3 G3E B3E Ge3|dB3 A3F EEE2 E2a2|
b3e agfe b3e gb3|a3d gfed a3d fa3|b3e agfe b3e Be3|dB3 A3F EEE2 E3a|
b3e agfe b3e gb3|a3d gfed a3d fa3|g3b g3e fd3 e3B|AF3 d3F EEE2 E4:|
